X:195
T:Shores of Lough Gowna, The
T:Banks of Lough Gowna, The
R:JIG
M:6/8
L:1/8
K:D
A | B3 BAF | FEF DFA | ~B3 BAF | d2 e fdB |
B3 BAF | FEF DFA | def gfe | fdB B2 :|
A | def a2 b | afb afe | dFA def | gfe  fdB |
def a2 b | afb afe | def gfe | fdB B2 :|
